build/img/icons/react.svg

<svg width="96" height="96" viewBox="0 0 96 96" fill="none" xmlns="http://www.w3.org/2000/svg">
<path d="M53.5141 48.4313C53.5141 51.6718 50.8844 54.2987 47.6406 54.2987C44.3967 54.2987 41.7671 51.6718 41.7671 48.4313C41.7671 45.1909 44.3967 42.564 47.6406 42.564C50.8844 42.564 53.5141 45.1909 53.5141 48.4313Z" fill="#FFFDF8"/>
<path fill-rule="evenodd" clip-rule="evenodd" d="M18.5098 26.428C18.7355 27.9411 19.0332 29.4986 19.3982 31.0925C17.8054 31.5784 16.2799 32.1097 14.8314 32.6804C5.26887 36.4513 0 41.7309 0 47.5446C0 53.3584 5.26887 58.638 14.8315 62.411C16.2952 62.9877 17.8354 63.5221 19.4462 64.0142C19.6942 64.0896 19.9438 64.164 20.195 64.2373C20.1443 64.4836 20.095 64.7289 20.0473 64.9734C19.7254 66.6245 19.4767 68.2369 19.3005 69.7988C18.1519 80.0043 20.3501 87.1285 25.4908 89.854C30.6315 92.5796 37.7699 90.4055 45.5892 83.7365C46.556 82.9111 47.5219 82.0285 48.4854 81.0917C49.5485 82.0635 50.6151 82.9733 51.6784 83.8174C59.7287 90.2046 66.9402 92.123 71.9804 89.2161C77.0205 86.3092 78.9631 79.1113 77.4528 68.9519C77.2209 67.3973 76.9141 65.7977 76.5353 64.1581L76.5047 64.0272L76.5537 64.0123C78.1627 63.5223 79.705 62.9879 81.1685 62.411C90.7331 58.638 96 53.3586 96 47.5446C95.9998 41.7309 90.7331 36.4513 81.1685 32.6804C79.7048 32.1038 78.1625 31.5694 76.5516 31.0772C76.2949 30.9992 76.0365 30.9222 75.7763 30.8463C75.8331 30.5716 75.888 30.2979 75.9409 30.0252C76.2619 28.3758 76.5124 26.7643 76.6884 25.2026C77.8361 14.9942 75.6371 7.8718 70.4963 5.14618C65.3555 2.42081 58.2181 4.59296 50.3998 11.2647C49.3617 12.151 48.3239 13.1044 47.2897 14.1193C46.2889 13.2115 45.2858 12.3576 44.2843 11.5628C36.231 5.17478 29.0207 3.25794 23.9804 6.16492C18.9403 9.07197 16.9966 16.2681 18.5098 26.428ZM41.4564 15.1196C42.3539 15.8325 43.2539 16.5954 44.1518 17.407C44.0041 17.5716 43.8565 17.7374 43.7091 17.9044C41.0886 20.8736 38.5288 24.215 36.0972 27.8412C31.7854 28.2871 27.6649 28.9759 23.839 29.8895L23.7883 29.9016C23.4669 28.4883 23.2068 27.1056 23.0058 25.7609C22.3938 21.6408 22.4053 18.0108 23.0434 15.263C23.6308 12.726 24.7102 10.9881 26.2539 10.0978C27.7973 9.20763 29.8437 9.14278 32.3366 9.90317C35.0378 10.7251 38.1905 12.5299 41.4564 15.1196ZM54.5047 80.2617C53.5494 79.5029 52.5913 78.6874 51.6359 77.817C51.8501 77.5798 52.0638 77.3401 52.2771 77.0978C54.8757 74.1562 57.4115 70.8474 59.8257 67.2579C64.1458 66.8143 68.2781 66.1269 72.1119 65.2122L72.1425 65.3457C72.4781 66.8056 72.7483 68.2331 72.9557 69.6202C73.5676 73.7403 73.5561 77.3702 72.9181 80.118C72.3306 82.6551 71.2512 84.393 69.7076 85.2832C68.1639 86.1735 66.1174 86.2385 63.6245 85.4781C60.9233 84.6562 57.7706 82.8513 54.5047 80.2617ZM75.3867 59.6199L75.3294 59.6375C74.173 55.7689 72.6527 51.7518 70.8146 47.6901C70.7424 47.5306 70.6696 47.3711 70.5963 47.2114C70.6692 47.0366 70.7415 46.8619 70.8133 46.6873C72.4078 42.8043 73.7207 38.9663 74.7182 35.2678C74.9424 35.3342 75.1652 35.4015 75.3867 35.4698C76.82 35.9094 78.1926 36.3894 79.4988 36.9035C83.3767 38.4342 86.5179 40.2591 88.581 42.185C90.4867 43.9617 91.4537 45.7645 91.4537 47.545C91.4537 49.3254 90.4867 51.1282 88.581 52.9047C86.5179 54.8306 83.3769 56.6555 79.4988 58.1862C78.1928 58.7003 76.82 59.1803 75.3867 59.6199ZM68.1909 53.0876C68.1539 52.9967 68.1167 52.9057 68.0793 52.8146C67.4041 54.2178 66.6933 55.6204 65.9501 57.0193C65.0936 58.6313 64.2081 60.2119 63.2966 61.7514C63.1871 61.9365 63.0773 62.121 62.9671 62.305C65.7437 61.9183 68.4129 61.4235 70.9417 60.8241C70.1848 58.3053 69.2632 55.716 68.1909 53.0876ZM67.9982 41.3869C67.96 41.4914 67.9216 41.5959 67.8829 41.7005C67.1521 40.3097 66.3845 38.9199 65.5848 37.5361C64.6713 35.9557 63.731 34.4093 62.765 32.9032L62.6619 32.7426L62.7838 32.7594C65.3997 33.1185 67.9214 33.5735 70.3212 34.1213C69.6817 36.4881 68.904 38.9185 67.9982 41.3869ZM56.8892 32.2709L56.7838 32.1178C53.9238 31.8926 50.9858 31.7791 48.0008 31.7791C44.9707 31.7791 41.9891 31.8961 39.0882 32.1259C38.9587 32.1361 38.8293 32.1465 38.7001 32.1572C38.6468 32.2406 38.5936 32.3241 38.5404 32.4078C36.9753 34.8587 35.4741 37.4348 34.0536 40.1084C32.67 42.7125 31.4062 45.3279 30.2726 47.9268C31.4923 50.4734 32.8432 53.0307 34.3123 55.5726C35.7945 58.1372 37.3506 60.6056 38.9621 62.9537L39.0882 62.9637C41.9891 63.1936 44.9707 63.3105 48.0008 63.3105C51.0309 63.3105 54.0125 63.1936 56.9133 62.9616C57.0188 62.9534 57.1242 62.9451 57.2294 62.9366C57.303 62.8221 57.3764 62.7073 57.4496 62.5922C59.0128 60.1403 60.514 57.5643 61.9346 54.8906C63.278 52.362 64.5086 49.8226 65.6151 47.2973C64.4133 44.8027 63.0874 42.2973 61.648 39.8069C60.1329 37.1855 58.5407 34.6645 56.8892 32.2709ZM59.4168 27.7923L59.2847 27.7792C56.6904 24.1798 53.9724 20.8753 51.2049 17.9591C50.9882 17.7304 50.7712 17.5042 50.5539 17.2803C51.4834 16.3699 52.4177 15.5153 53.3512 14.7177C56.5226 12.0136 59.6089 10.0974 62.2791 9.17983C64.7435 8.33123 66.7908 8.32316 68.3653 9.1579C69.9395 9.99255 71.0803 11.6909 71.7577 14.2053C72.4934 16.9286 72.6346 20.5557 72.1699 24.6952C72.0123 26.0886 71.7931 27.525 71.5099 28.9958C71.4649 29.2313 71.4183 29.4677 71.3702 29.7049C67.6247 28.8496 63.6079 28.2066 59.4168 27.7923ZM47.9793 21.1585C47.7919 20.9602 47.6043 20.7639 47.4164 20.5695C47.2935 20.7071 47.1707 20.8457 47.048 20.9851C45.3138 22.9534 43.6065 25.0987 41.9457 27.3924C42.1537 27.3819 42.362 27.372 42.5706 27.3627C44.3611 27.2799 46.1741 27.2376 48.001 27.2376C49.78 27.2376 51.5456 27.2779 53.2885 27.3562C51.5528 25.1321 49.7763 23.0571 47.9793 21.1585ZM25.1746 48.3158C25.2153 48.2168 25.2562 48.1177 25.2972 48.0187C25.2472 47.909 25.1974 47.7994 25.1479 47.6899C23.2888 43.5857 21.7568 39.5235 20.5941 35.6161L20.5558 35.4871C19.1431 35.922 17.7894 36.396 16.5008 36.9033C12.6227 38.434 9.48173 40.2589 7.41857 42.1848C5.51288 43.9613 4.54593 45.7643 4.54593 47.5448C4.54593 49.3254 5.51288 51.1282 7.41857 52.9049C9.48173 54.8308 12.6229 56.6557 16.5008 58.1863C17.807 58.7005 19.1796 59.1805 20.613 59.6201C20.8235 59.685 21.0353 59.7491 21.2483 59.8123C22.2497 56.0899 23.5684 52.2272 25.1746 48.3158ZM27.7706 42.2934L27.8108 42.3921C28.5156 40.9191 29.2586 39.446 30.0379 37.9792C30.8944 36.3672 31.7817 34.7875 32.6933 33.248C32.7828 33.0964 32.8726 32.9452 32.9626 32.7943C30.189 33.1826 27.523 33.6789 24.9976 34.2798L24.9409 34.2932L24.9797 34.4234C25.7441 36.9842 26.6793 39.6186 27.7706 42.2934ZM30.375 57.8432C29.5509 56.4173 28.7624 54.984 28.012 53.5506L27.9888 53.6138C27.0727 56.1104 26.2875 58.5682 25.644 60.9607C28.0165 61.5034 30.5084 61.9553 33.0929 62.3136C32.1628 60.8581 31.2551 59.366 30.375 57.8432ZM24.6001 65.3786C28.3143 66.2294 32.2957 66.8685 36.4516 67.286L36.5658 67.4454C39.1942 71.1058 41.9489 74.4606 44.755 77.4202C44.9135 77.5874 45.0722 77.7533 45.231 77.9179C44.3684 78.7546 43.5019 79.5434 42.6362 80.2831C39.4648 82.9872 36.3785 84.9034 33.7083 85.821C31.2439 86.6696 29.1966 86.6777 27.6221 85.8429C26.0477 85.0082 24.9068 83.3097 24.2294 80.7953C23.4936 78.072 23.3525 74.4449 23.8171 70.3055C23.9748 68.912 24.194 67.4757 24.4772 66.0048C24.5169 65.7968 24.5579 65.588 24.6001 65.3786ZM42.5544 67.8733L42.4372 67.7225L42.5727 67.7288C44.3613 67.8114 46.1741 67.8517 48.001 67.8517C49.8278 67.8517 51.6387 67.8114 53.4273 67.7288C53.6096 67.7204 53.7917 67.7117 53.9735 67.7025C52.3341 69.9608 50.6499 72.0743 48.9394 74.0157C48.7538 74.2267 48.5678 74.4356 48.3816 74.6425C48.2482 74.5035 48.1149 74.3636 47.9818 74.2227C46.144 72.2811 44.3277 70.1548 42.5544 67.8733Z" fill="#FFFDF8"/>
</svg>

<svg width="96" height="96" fill="none" xmlns="http://www.w3.org/2000/svg"><path d="M53.514 48.431a5.87 5.87 0 01-5.873 5.868 5.87 5.87 0 01-5.874-5.868 5.87 5.87 0 015.874-5.867 5.87 5.87 0 015.873 5.867z" fill="#FFFDF8"/><path fill-rule="evenodd" clip-rule="evenodd" d="M18.51 26.428a61.75 61.75 0 00.888 4.665 61.13 61.13 0 00-4.567 1.587C5.27 36.451 0 41.73 0 47.545c0 5.813 5.269 11.093 14.832 14.866a62.065 62.065 0 005.363 1.826c-.05.247-.1.492-.148.736A60.98 60.98 0 0019.3 69.8c-1.148 10.205 1.05 17.33 6.19 20.055 5.142 2.726 12.28.552 20.1-6.117a60.696 60.696 0 002.895-2.645 60.413 60.413 0 003.193 2.725c8.05 6.388 15.262 8.306 20.302 5.4 5.04-2.908 6.983-10.106 5.473-20.265a61.897 61.897 0 00-.918-4.794l-.03-.13.049-.016a61.284 61.284 0 004.614-1.601C90.733 58.638 96 53.359 96 47.545S90.733 36.45 81.168 32.68a62.201 62.201 0 00-5.392-1.834 61.142 61.142 0 00.912-5.644c1.148-10.208-1.05-17.33-6.192-20.056-5.14-2.725-12.278-.553-20.096 6.119a61.008 61.008 0 00-3.11 2.854 59.98 59.98 0 00-3.006-2.556C36.231 5.175 29.021 3.258 23.98 6.165c-5.04 2.907-6.983 10.103-5.47 20.263zM41.456 15.12a55.551 55.551 0 012.696 2.287c-.148.165-.296.33-.443.497-2.62 2.97-5.18 6.311-7.612 9.937-4.312.446-8.432 1.135-12.258 2.049l-.05.012a56.076 56.076 0 01-.783-4.141c-.612-4.12-.6-7.75.037-10.498.588-2.537 1.667-4.275 3.21-5.165 1.544-.89 3.59-.955 6.084-.195 2.7.822 5.853 2.627 9.12 5.217zm13.049 65.142a55.797 55.797 0 01-2.87-2.445c.215-.237.429-.477.642-.72 2.599-2.94 5.134-6.25 7.549-9.84 4.32-.443 8.452-1.13 12.286-2.045l.03.134c.336 1.46.606 2.887.814 4.274.612 4.12.6 7.75-.038 10.498-.587 2.537-1.667 4.275-3.21 5.165-1.544.89-3.59.956-6.084.195-2.7-.822-5.853-2.627-9.12-5.216zM75.387 59.62l-.058.018c-1.156-3.87-2.676-7.886-4.514-11.948l-.219-.479.217-.524c1.595-3.883 2.908-7.72 3.905-11.42.224.067.447.134.669.203 1.433.44 2.806.92 4.112 1.434 3.878 1.53 7.019 3.355 9.082 5.281 1.906 1.777 2.873 3.58 2.873 5.36 0 1.78-.967 3.583-2.873 5.36-2.063 1.926-5.204 3.75-9.082 5.281a56.32 56.32 0 01-4.112 1.434zm-7.196-6.532l-.112-.273a118.275 118.275 0 01-2.129 4.204 117.609 117.609 0 01-2.983 5.286 86.227 86.227 0 007.975-1.48 86.302 86.302 0 00-2.751-7.737zm-.193-11.701a85.59 85.59 0 01-.115.313 117.48 117.48 0 00-2.298-4.164 117.471 117.471 0 00-2.82-4.633l-.103-.16.122.016c2.616.36 5.137.815 7.537 1.362a87.102 87.102 0 01-2.323 7.266zM56.89 32.27l-.105-.153A112.07 112.07 0 0048 31.779a113.044 113.044 0 00-9.3.378l-.16.25a111.724 111.724 0 00-4.487 7.701 112.873 112.873 0 00-3.781 7.819 111.86 111.86 0 004.04 7.646 112.875 112.875 0 004.65 7.38l.125.01c2.901.23 5.883.347 8.913.347a111.98 111.98 0 009.228-.373l.22-.345a112.773 112.773 0 004.486-7.701 112.124 112.124 0 003.68-7.594 113.35 113.35 0 00-3.967-7.49 111.779 111.779 0 00-4.759-7.536zm2.528-4.479l-.132-.013c-2.595-3.6-5.313-6.904-8.08-9.82a78.514 78.514 0 00-.651-.679 56.19 56.19 0 012.797-2.562c3.172-2.704 6.258-4.62 8.928-5.538 2.464-.849 4.512-.857 6.086-.022 1.575.835 2.715 2.533 3.393 5.047.735 2.724.877 6.35.412 10.49a56.144 56.144 0 01-.8 5.01c-3.745-.855-7.762-1.498-11.953-1.913zM47.98 21.157a72.401 72.401 0 00-.563-.588l-.368.415a85.985 85.985 0 00-5.102 6.407l.625-.03a117.633 117.633 0 0110.718-.006 85.958 85.958 0 00-5.31-6.198zm-22.805 27.16l.122-.297-.15-.33c-1.858-4.103-3.39-8.166-4.553-12.073l-.038-.129a56.284 56.284 0 00-4.055 1.416c-3.878 1.531-7.02 3.356-9.082 5.282-1.906 1.776-2.873 3.58-2.873 5.36 0 1.78.967 3.583 2.873 5.36 2.063 1.926 5.204 3.75 9.082 5.281a56.292 56.292 0 004.747 1.626c1.002-3.722 2.32-7.585 3.927-11.496zm2.596-6.023l.04.1a117.531 117.531 0 015.152-9.599 86 86 0 00-7.965 1.486l-.057.013.039.13a86.1 86.1 0 002.79 7.87zm2.604 15.55a117.395 117.395 0 01-2.363-4.292l-.023.063a86.95 86.95 0 00-2.345 7.347 87.68 87.68 0 007.449 1.353 117.457 117.457 0 01-2.718-4.47zM24.6 65.38c3.714.85 7.696 1.49 11.852 1.907l.114.16c2.628 3.66 5.383 7.015 8.189 9.974.158.167.317.333.476.498a55.7 55.7 0 01-2.595 2.365c-3.171 2.704-6.258 4.62-8.928 5.538-2.464.849-4.511.857-6.086.022-1.574-.835-2.715-2.533-3.393-5.048-.735-2.723-.877-6.35-.412-10.49a56.197 56.197 0 01.783-4.926zm17.954 2.494l-.117-.15.136.006c1.788.082 3.601.123 5.428.123a117.696 117.696 0 005.973-.15 85.863 85.863 0 01-5.592 6.94 86.193 86.193 0 01-5.827-6.77z" fill="#FFFDF8"/></svg>
